!!!COM:	de Orto, Marbrianus
!!!CDT:	~1460///-1529//
!!!OPR:	Missa Dominicalis
!!!ONM:	3
!!!OTL:	Credo
!!!AGN:	Mass; Credo
!!!SCT:	Ort1001c
!!!SCA:	Ort1001c
!!!voices:	4
!!!voices-OPR:	4
**kern	**kern	**kern	**kern
*staff4	*staff3	*staff2	*staff1
*Ivox	*Ivox	*Ivox	*Ivox
*I"Bassus	*I"Tenor	*I"Altus	*I"Discantus
*I'B	*I'T	*I'A	*I'D
*>[A,B,C]	*>[A,B,C]	*>[A,B,C]	*>[A,B,C]
*>A	*>A	*>A	*>A
*clefF4	*clefGv2	*clefGv2	*clefG2
*k[b-]	*k[b-]	*k[b-]	*k[b-]
*M3/1	*M3/1	*M3/1	*M3/1
*met(O)	*met(O)	*met(O)	*met(O)
!!section: Patrem omnipotentem
!!!OMD: Patrem omnipotentem
=1-	=1-	=1-	=1-
0.r	0.r	0d	0.r
.	.	1G	.
=2	=2	=2	=2
0.r	0.r	1g	0dd
.	.	2f\	.
.	.	2d\	.
.	.	2e-i\	1g
.	.	4d\	.
.	.	4c\	.
=3	=3	=3	=3
0.r	0.r	2B-\	1dd
.	.	2.f\	.
.	.	.	2cc\
.	.	4e\	.
.	.	1g	2b-\
.	.	.	1a
.	.	2f#i\	.
=4	=4	=4	=4
0G	0.r	2.g\	0g
.	.	4f\	.
.	.	1d	.
1C	.	2.e-i\	1r
.	.	4d\	.
=5	=5	=5	=5
1G	0d	1B-	0.r
2F\	.	1A	.
2D\	.	.	.
2E-i\	1G	1r	.
4D\	.	.	.
4C/	.	.	.
=6	=6	=6	=6
4BB-/	1d	0.r	0.r
4C/	.	.	.
4D\	.	.	.
4E\	.	.	.
2F\	2c\	.	.
1G	2B-\	.	.
.	1A	.	.
2F#i\	.	.	.
=7	=7	=7	=7
2.G\	1G	1d	0.r
4F\	.	.	.
1D	1A	1f	.
1E	1c	1g	.
=8	=8	=8	=8
1D	1d	2f\	1a
.	.	4e\	.
.	.	4d\	.
1A	1e	2c\	1cc
.	.	2A/	.
1D	1f	[1a	1dd
=9	=9	=9	=9
2A\	2e\	1a]	4cc\
.	.	.	4dd\
2D\	2d\	.	4ee\
.	.	.	4ff\
2C/	2g\	2r	2ee\
2D\	2f\	[1.a	1dd
1A	1e	.	.
.	.	.	2cc#i\
=10	=10	=10	=10
1D	0d	2a\]	1dd
.	.	1f	.
1r	.	.	2a/
.	.	2d\	2b-\
2A\	2e\	2c\	2cc\
2A\	2f\	2A/	2cc\
=11	=11	=11	=11
2G\	2g\	2B-\	1dd
2D\	2f\	2A/	.
1A	1e	2r	2.cc\
.	.	2.a\	.
.	.	.	4b-\
2D\	2r	.	1a
.	.	4g\	.
2D\	[2d\	4f\	.
.	.	4e\	.
=12	=12	=12	=12
0G	2d\]	2d\	1g
.	2c\	2e\	.
.	1Bn	0g	1dd
1C	1c	.	1ee-i
=13	=13	=13	=13
1G	1r	1g	2dd\
.	.	.	2b-\
2A\	1e	1c	1cc
2c\	.	.	.
2B-\	1f	1r	1dd
2d\	.	.	.
=14	=14	=14	=14
1A	1e	1c	2cc\
.	.	.	1cc
2r	1d	2f\	.
2G\	.	2g\	2b-\
2A\	2c\	2e\	2cc\
2B-\	2f\	2d\	2dd\
=15	=15	=15	=15
2c\	2e\	2r	4g/
.	.	.	4a/
2G\	1d	2B-\	2b-\
2D\	.	2A/	2f/
2E\	2c\	2G/	2.g/
1D	1d	1A	.
.	.	.	8f#i/L
.	.	.	8eni/J
.	.	.	2f#i/
=16	=16	=16	=16
2r	1r	1G	1g
2G\	.	.	.
2A\	1r	1c	1e
2c\	.	.	.
[1B-	1d	1r	1f
=17	=17	=17	=17
1B-]	1G	1d	1g
2A\	1F	1f	1a
2F\	.	.	.
2E\	2c\	2g\	2g/
2D\	2d\	[2a\	2f/
=18	=18	=18	=18
1A	2.c\	4a\]	1e
.	.	4g\	.
.	.	2.e\	.
.	4B-\	.	.
1r	2A/	.	1r
.	.	4d\	.
.	2G/	2B-\	.
2D\	2F/	2A/	1r
2E\	2G/	2c\	.
=19	=19	=19	=19
2D\	2A/	2d\	2f/
2A\	2c\	2c\	2e/
1G	1B-	1.d	1g
2D\	2A/	.	1a
[2F\	2A/	2c\	.
=20	=20	=20	=20
4F\]	1c	1f	1a
4G\	.	.	.
2A\	.	.	.
1G	0d	1g	1b-
2F\	.	1a	2a/
2D\	.	.	[2dd\
=21	=21	=21	=21
1A	1e	2r	2dd\]
.	.	2A/	2cc\
2.F\	2.f\	1.c	1a
4G\	4e\	.	.
1A	1c	.	2r
.	.	2A/	[2cc\
=22	=22	=22	=22
2r	1f	1F	4cc\]
.	.	.	4b-\
2D\	.	.	2a/
2E\	2e\	1r	2g/
2F\	1d	.	2f/
2G\	.	1r	1e
2A\	2c#i\	.	.
=23	=23	=23	=23
2.B-\	1d	2.G/	1d
4c\	.	4A/	.
2d\	1r	4B-\	1r
.	.	4G/	.
2B-\	.	1g	.
1A	1r	.	1r
.	.	2f#i\	.
=24	=24	=24	=24
2G\	1r	2g\	0.r
2G\	.	2G/	.
2E\	1r	2c\	.
2F\	.	2A/	.
2G\	1e	2B-\	.
2A\	.	2c\	.
=25	=25	=25	=25
1D	1f	1d	1a
2r	0g	2G/	1b-
2G\	.	2d\	.
1C	.	1e	1cc
=26	=26	=26	=26
1D	1f	1d	1a
1r	1e	1A	1cc
2.G\	1d	2.B-\	1dd
8F\L	.	4G/	.
8E\J	.	.	.
=27	=27	=27	=27
1D	1d	2A/	1dd
.	.	2B-\	.
1C	1G	1c	1ee-i
2G\	2r	4B-\	1dd
.	.	4c\	.
2B-\	2d\	4d\	.
.	.	4e\	.
=28	=28	=28	=28
2A\	2c\	2f\	2r
2G\	2d\	2.g\	2b-\
1r	2c\	.	2cc\
.	.	4f\	.
.	2B-\	2d\	1dd
1r	1A	1e	.
.	.	.	2cc\
=29	=29	=29	=29
1B-	0.r	2d\	2dd\
.	.	2f\	1dd
2G\	.	2g\	.
2A\	.	2c\	1cc
1G	.	1d	.
.	.	.	2bni\
=30	=30	=30	=30
1C	1G	1c	1cc
2D\	2F/	1A	1r
2F\	2A/	.	.
1E	1c	1G	1g
=31	=31	=31	=31
1D	[0.d	2A/	2f/
.	.	2F/	2.a/
1G	.	1B-	.
.	.	.	4g/
.	.	.	1g
1D	.	1A	.
.	.	.	2f#i/
=32	=32	=32	=32
1G	1d]	2B-\	0g
.	.	2G/	.
0C	0e	2c\	.
.	.	4B-\	.
.	.	4A/	.
.	.	2G/	2r
.	.	2c\	2g/
=33	=33	=33	=33
2D\	1f	2.A/	2f/
2F\	.	.	2a/
.	.	4B-\	.
2C/	2e\	2c\	2g/
2D\	1d	2A/	2f/
1A	.	2r	1e
.	2c#i\	[2A/	.
=34	=34	=34	=34
2D\	0d	2A/]	2f/
1G	.	1B-	2d/
.	.	.	1g
2G\	.	2B-\	.
1D	1d	2A/	1a
.	.	[2a\	.
=35	=35	=35	=35
2F\	2c\	4a\]	1r
.	.	4g\	.
2G\	2B-\	1g	.
1D	1A	.	2r
.	.	2f\	2a/
2r	1G	3g\	1b-
.	.	3d\	.
2G\	.	.	.
.	.	3e\	.
=36	=36	=36	=36
1.D	2.F/	1f	1a
.	4G/	.	.
.	2A/	1d	2f/
2G\	2B-\	.	2g/
2.F\	2.A/	1f	2a/
.	.	.	[2cc\
4G\	4B-\	.	.
=37	=37	=37	=37
2A\	2c\	2e\	4cc\]
.	.	.	4b-\
2D\	2d\	2f\	2.a/
2G\	2B-\	2d\	.
.	.	.	4g/
2C/	2c\	2e\	1g
1D	1A	1d	.
.	.	.	2f#i/
=38	=38	=38	=38
1r	1G	2r	1g
.	.	2d\	.
2r	1A	2c\	1r
2D\	.	2d\	.
2C/	1r	2e\	1r
2D\	.	[2f\	.
=39	=39	=39	=39
2E\	1r	4f\]	1r
.	.	4e\	.
2F\	.	2.c\	.
2C/	1r	.	2e/
.	.	4A/	.
2D\	.	2d\	2f/
1E	2d\	1G	1g
.	2c\	.	.
=40	=40	=40	=40
2D\	2d\	2.F/	0a
2A\	2e\	.	.
.	.	4G/	.
2F\	2.f\	2A/	.
2D\	.	2F/	.
.	4e\	.	.
1G	1d	1B-	1g
=41	=41	=41	=41
1C	1r	1c	1e
2D\	2d\	1A	2f/
2D\	2d\	.	2f/
2A\	2c\	1r	2e/
2F\	2A/	.	2f/
=42	=42	=42	=42
2E\	2G/	1r	2g/
2.C/	2.c\	.	2e/
.	.	2G/	1g
4D\	4B-\	.	.
2E\	4A/	2c\	.
.	4G/	.	.
2D\	1F	2d\	1a
2F\	.	[2d\	.
=43	=43	=43	=43
1E	1G	4d\]	1r
.	.	8c\L	.
.	.	8B-\J	.
.	.	2c\	.
1D	1A	2d\	2r
.	.	2.f\	2a/
1G	1r	.	1b-
.	.	4d\	.
.	.	2e\	.
=44	=44	=44	=44
1F	1r	2f\	2a/
.	.	2c\	2a/
2D\	2A/	2d\	2f/
2C/	2c\	2e\	2.g/
1G	2d\	2d\	.
.	.	.	4a/
.	2d\	[2g\	[2b-\
=45	=45	=45	=45
2E-\	2G/	4g\]	4b-\]
.	.	4f\	4a/
2G\	2B-\	1d	1g
1D	1A	.	.
.	.	2d\	2f#i/
1G	1G	2e\	1g
.	.	2d\	.
=46	=46	=46	=46
0.r	2d\	2r	0.r
.	2c\	2e\	.
.	2d\	2f\	.
.	2e\	2g\	.
.	1f	1a	.
=47	=47	=47	=47
1r	2e\	2g\	1r
.	1d	2f\	.
1A	.	1e	1r
.	2c#i\	.	.
2.B-\	1d	[1d	[1f
4c\	.	.	.
=48	=48	=48	=48
2d\	2r	1d]	1f]
2D\	2B-\	.	.
2C/	2c\	2G/	2e/
2D\	2A/	2d\	2f/
2.E-\	2G/	2B-\	1g
.	2c\	2G/	.
4F\	.	.	.
=49	=49	=49	=49
2G\	2B-\	2d\	2g/
2C/	2.c\	2.e-i\	2g/
1E-i	.	.	1g
.	4B-\	4d\	.
.	2G/	4B-\	.
.	.	4c\	.
2D\	2A/	2d\	2f/
2G\	2B-\	2eni\	2g/
=50	=50	=50	=50
2F\	2c\	1f	2.a/
2D\	2d\	.	.
.	.	.	4b-\
1C	1e-	1g	1cc
2G\	2d\	2G/	2b-\
2F\	[2f\	2A/	2a/
=51	=51	=51	=51
1BB-	4f\]	2.B-\	2.dd\
.	4e-i\	.	.
.	2d\	.	.
.	.	8c\L	8cc\L
.	.	8d\J	8b-\J
1C	2c\	2e-i\	4a/
.	.	.	4g/
.	2e-\	2c\	2cc\
2G\	1d	2d\	2b-\
2D\	.	[2d\	[2a/
=52	=52	=52	=52
1E	2.G/	2d\]	4a/]
.	.	.	4g/
.	.	2c\	2g/
.	4A/	.	.
2D\	2B-\	2d\	2f/
2C/	2c\	2e-i\	1g
1D	1A	[1dl	.
.	.	.	2f#i/
=53	=53	=53	=53
0.Gl	0.Gl	0.d]	0.gl
!!LO:LB:i:g=z
=54||	=54||	=54||	=54||
*>B	*>B	*>B	*>B
*clefF4	*clefGv2	*clefGv2	*clefG2
*k[b-]	*k[b-]	*k[b-]	*k[b-]
*M2/1	*M2/1	*M2/1	*M2/1
*met(O2)	*met(O2)	*met(O2)	*met(O2)
!!section: Et incarnatus est
!!!OMD: Et incarnatus est
0G	0r	1G	0r
.	.	1B-	.
=55.	=55.	=55.	=55.
1F	0r	1A	0r
1G	.	[1d	.
=56.	=56.	=56.	=56.
1F	0r	1d]	0r
1E	.	1c#i	.
=57	=57	=57	=57
1D	0r	0d	1a
1G	.	.	1b-
=58.	=58.	=58.	=58.
0C	0g	0e	1.cc
.	.	.	2cc\
=59.	=59.	=59.	=59.
1F	1f	0c	1cc
2E\	1g	.	1cc
2C/	.	.	.
=60	=60	=60	=60
1F	1f	1A	0cc
1C	1e	1c	.
=61.	=61.	=61.	=61.
0G	1d	1d	1b-
.	1e	1B-	1g
=62.	=62.	=62.	=62.
1F	[0f	1c	1.a
[1F	.	1A	.
.	.	.	2b-\
=63	=63	=63	=63
2F\]	1f]	1a	1.cc
2G\	.	.	.
1A	1e	1a	.
.	.	.	4b-\
.	.	.	4cc\
=64.	=64.	=64.	=64.
1B-	0d	2f\	0dd
.	.	1g	.
2G\	.	.	.
[2B-\	.	2f\	.
=65.	=65.	=65.	=65.
2B-\]	0f	1d	0r
4A\	.	.	.
4G\	.	.	.
1A	.	[1c	.
=66	=66	=66	=66
0G	[0g	2c\]	0dd
.	.	4Bni\	.
.	.	4A/	.
.	.	1Bni	.
=67.	=67.	=67.	=67.
0C	0g]	0c	0ee-i
=68.	=68.	=68.	=68.
0D	1.f	0A	0dd
.	2e\	.	.
=69	=69	=69	=69
0G	0d	1G	0b-
.	.	1g	.
=70.	=70.	=70.	=70.
1C	0c	1g	1.cc
1c	.	2e\	.
.	.	[2g\	4dd\
.	.	.	4ee-i\
=71.	=71.	=71.	=71.
2B-\	0r	2g\]	2dd\
2A\	.	2c\	1cc
1G	.	4d\	.
.	.	4e\	.
.	.	4f\	2b-\
.	.	4g\	.
=72	=72	=72	=72
2F\	0r	2a\	0cc
2G\	.	1g	.
1A	.	.	.
.	.	2f#i\	.
=73.	=73.	=73.	=73.
0G	1B-	0g	0dd
.	1d	.	.
=74.	=74.	=74.	=74.
0C	0c	1.g	0ee-i
.	.	2e\	.
=75	=75	=75	=75
1BB-	0d	[0f	1dd
2r	.	.	1b-
2B-\	.	.	.
=76.	=76.	=76.	=76.
1A	1c	1f]	1cc
1G	1d	1g	1b-
=77.	=77.	=77.	=77.
1A	1c	1f	1cc
1G	1B-	1d	1dd
=78	=78	=78	=78
0r	[0Al	0e	1cc
.	.	.	[1cc
=79.	=79.	=79.	=79.
1.F	0A_	2.f\	2cc\]
.	.	.	2b-\
.	.	4e\	.
.	.	1c	2a/
2E\	.	.	2g/
=80.	=80.	=80.	=80.
0Dl	0A]	0dl	0fl
!!LO:LB:i:g=z
=81||	=81||	=81||	=81||
*>B	*>B	*>B	*>B
*clefF4	*clefGv2	*clefGv2	*clefG2
*k[b-]	*k[b-]	*k[b-]	*k[b-]
*M2/1	*M2/1	*M2/1	*M2/1
*met(C)	*met(C)	*met(C)	*met(C)
!!section: Crucifixus
!!!OMD: Crucifixus
!	!	!	!LO:TX:Z=8:t=(Petrucci&colon; Cut-C in all voices)
1G	0r	1r	0r
1A	.	1c	.
=82.	=82.	=82.	=82.
1G	1r	1d	1r
1E	1c	1G	1g
=83.	=83.	=83.	=83.
2D\	1d	1A	1f
2D\	.	.	.
2E\	1c	2G/	1g
2C/	.	2c\	.
=84	=84	=84	=84
1F	1A	2c\	1a
.	.	1f	.
2G\	2B-\	.	1dd
2G\	2B-\	2d\	.
=85.	=85.	=85.	=85.
2A\	2A/	2f\	2cc\
2B-\	2G/	2.g\	2dd\
1A	1c	.	1ee
.	.	4e\	.
.	.	[2a\	.
=86.	=86.	=86.	=86.
1D	2.d\	2a\]	1ff
.	.	2a\	.
.	4A/	.	.
1r	2c\	2g\	2ee\
.	2d\	2f\	[2dd\
=87	=87	=87	=87
0r	1A	1e	2dd\]
.	.	.	2cc#i\
.	1B-	1d	1dd
=88.	=88.	=88.	=88.
2D\	1d	1f	1a
2F\	.	.	.
2.E-i\	2.G/	2.g\	[1b-
4F\	4A/	4f\	.
=89.	=89.	=89.	=89.
2G\	2B-\	2d\	2b-\]
4F\	1c	2.f\	1a
4G\	.	.	.
4A\	.	.	.
4B-\	.	4g\	.
2c\	2A/	[2a\	2a/
=90	=90	=90	=90
1d	2B-\	2a\]	2f/
.	4A/	2.d\	2g/
.	4G/	.	.
1D	1F	.	1a
.	.	4e\	.
.	.	2f\	.
=91.	=91.	=91.	=91.
1E-i	0r	2B-\	2g/
.	.	2c\	2g/
2D\	.	[1d	2a/
2G\	.	.	2b-\
=92.	=92.	=92.	=92.
2F\	2r	1d]	2a/
2G\	2B-\	.	2g/
1D	2A/	2.d\	2a/
.	2B-\	.	2f/
.	.	4c\	.
=93	=93	=93	=93
2E-i\	2G/	2B-\	2g/
1F	2A/	2A/	2.cc\
.	1F	2c\	.
.	.	.	4b-\
2c\	.	2f\	4a/
.	.	.	4g/
=94.	=94.	=94.	=94.
2B-\	2G/	2d\	2b-\
1F	2.c\	2.f\	2.a/
.	4B-\	4e\	4g/
2G\	4A/	[2d\	[2g/
.	4G/	.	.
=95.	=95.	=95.	=95.
1D	1A	2d\]	2g/]
.	.	2d\	2f#i/
2r	1G	1B-	1g
2G\	.	.	.
=96	=96	=96	=96
2F\	1r	1c	0r
2C/	.	.	.
1E	1g	1c	.
=97.	=97.	=97.	=97.
0D	2f\	2.d\	0r
.	2d\	.	.
.	.	4c\	.
.	1f	2B-\	.
.	.	2A/	.
=98.	=98.	=98.	=98.
0E-	1g	2r	0r
.	.	1B-	.
.	1g	.	.
.	.	2c\	.
=99	=99	=99	=99
2F\	2a\	2A/	0r
1E-i	1g	2B-\	.
.	.	2c\	.
2D\	2f\	[2d\	.
=100.	=100.	=100.	=100.
1A	1e	2d\]	0r
.	.	2c#i\	.
2r	1d	2.d\	.
2D\	.	.	.
.	.	8cni\L	.
.	.	8B-\J	.
=101.	=101.	=101.	=101.
1.F	2c\	2A/	0r
.	2d\	2.a\	.
.	2c\	.	.
.	.	4g\	.
2G\	2B-\	[2g\	.
=102	=102	=102	=102
1D	1A	2g\]	2r
.	.	2f#i\	2a/
1r	1G	1g	1b-
=103.	=103.	=103.	=103.
0r	1A	2e\	1cc
.	.	2f\	.
.	2B-\	2d\	2b-\
.	2c\	[2e\	2a/
=104.	=104.	=104.	=104.
1r	1A	2e\]	1cc
.	.	2e\	.
1G	1B-	2d\	1dd
.	.	[2g\	.
=105	=105	=105	=105
1A	1c	2g\]	1r
.	.	2f#i\	.
1G	1d	1g	1dd
=106.	=106.	=106.	=106.
1C	2c\	2.G/	1ee-i
.	2c\	.	.
.	.	4A/	.
1BB-	[1f	2B-\	2dd\
.	.	[2d\	2dd\
=107.	=107.	=107.	=107.
2D\	2f\]	4d\]	2b-\
.	.	4c\	.
2C/	2e\	2A/	2cc\
2BB-/	2d\	2.B-\	2dd\
[2C/	[2e\	.	2g/
.	.	4G/	.
=108	=108	=108	=108
2C/]	2e\]	0g	2cc\
2C/	2c\	.	1cc
1G	1d	.	.
.	.	.	2bni\
=109.	=109.	=109.	=109.
1.F	0r	2.a\	1cc
.	.	4g\	.
.	.	4f\	2a/
.	.	4e\	.
2G\	.	2d\	2b-\
=110.	=110.	=110.	=110.
1A	0r	2c\	2.cc\
.	.	2e\	.
.	.	.	4cc\
1F	.	1f	2cc\
.	.	.	2cc\
=111	=111	=111	=111
1C	1g	1e	2cc\
.	.	.	2cc\
2F\	2f\	1c	1cc
2C/	2e\	.	.
=112.	=112.	=112.	=112.
1F	2d\	1A	1r
.	2c\	.	.
2G\	2B-\	1r	2dd\
2A\	2c\	.	2cc\
=113.	=113.	=113.	=113.
2G\	1d	1r	2b-\
2F\	.	.	1a
1D	1d	1f	.
.	.	.	2b-\
=114	=114	=114	=114
0r	2c\	2e\	2a/
.	2d\	2f\	2b-\
.	1e	1g	1cc
=115.	=115.	=115.	=115.
2D\	1d	2f\	1dd
2G\	.	2g\	.
2F\	1d	2a\	1r
2B-\	.	2g\	.
=116.	=116.	=116.	=116.
2A\	2c\	2f\	1r
2G\	2d\	2g\	.
2A\	2.c\	2e\	[1a
2F\	.	[2f\	.
.	4B-\	.	.
=117	=117	=117	=117
1c	1A	4f\]	1a]
.	.	4e\	.
.	.	2f\	.
1d	1G	4g\	1b-
.	.	4f\	.
.	.	4d\	.
.	.	4e\	.
=118.	=118.	=118.	=118.
0D	1F	1f	1a
.	1A	1d	1f
=119.	=119.	=119.	=119.
2C/	1c	2G/	2g/
2F\	.	2F/	2.a/
2C/	1c	4c\	.
.	.	4B-\	4g/
2E\	.	4A/	[2g/
.	.	4G/	.
=120	=120	=120	=120
1D	0d	1A	2g/]
.	.	.	2f#i/
2r	.	2G/	1g
2G\	.	2B-\	.
=121.	=121.	=121.	=121.
2F\	1r	2A/	0r
2G\	.	2d\	.
2A\	2r	2c\	.
2B-\	2d\	[2f\	.
=122.	=122.	=122.	=122.
2A\	2c\	2f\]	0r
2.G\	2d\	1g	.
.	2e\	.	.
8F\L	.	.	.
8E\J	.	.	.
2D\	2f\	[2a\	.
=123	=123	=123	=123
2A\	2e\	4a\]	0r
.	.	4g\	.
2.B-\	2d\	4f\	.
.	.	4e\	.
.	2.g\	2d\	.
4A\	.	.	.
2G\	.	2B-\	.
.	4f\	.	.
=124.	=124.	=124.	=124.
2A\	4e\	2c\	0r
.	4d\	.	.
2F\	1d	1A	.
1E	.	.	.
.	2c#i\	2G/	.
=125.	=125.	=125.	=125.
2D\	2.d\	2A/	2a/
2G\	.	2r	2b-\
.	4c\	.	.
2.F\	1A	2.a\	2cc\
.	.	.	2cc\
4G\	.	4g\	.
=126	=126	=126	=126
2A\	2c\	4e\	2cc\
.	.	4f\	.
2G\	2d\	2g\	2b-\
2c\	2e\	2a\	2cc\
[2B-\	2f\	[2b-\	[2dd\
=127.	=127.	=127.	=127.
2B-\]	2g\	4b-\]	4dd\]
.	.	4g\	4cc\
2c\	2e\	1g	2.cc\
1G	2d\	.	.
.	.	.	4a/
.	4c\	2g\	2b-\
.	4B-\	.	.
=128.	=128.	=128.	=128.
2r	2A/	2a\	2cc\
2.G\	2B-\	2d\	2.dd\
.	2G/	2g\	.
4E\	.	.	4cc\
4F\	[2c\	2c\	4b-\
4E\	.	.	4a/
=129	=129	=129	=129
1C	4c\]	1e-	2.cc\
.	4B-\	.	.
.	4A/	.	.
.	4G/	.	4b-\
2r	2c\	2e-\	4a/
.	.	.	4g/
2G\	2d\	2g\	[2b-\
=130.	=130.	=130.	=130.
2E-\	2e-i\	1r	4b-\]
.	.	.	4a/
2B-\	1d	.	4f/
.	.	.	4g/
4A\	.	2f\	4a/
4G\	.	.	4b-\
2A\	2c\	2f\	2cc\
=131.	=131.	=131.	=131.
2G\	1d	2g\	2b-\
2D\	.	4f\	2.a/
.	.	2d\	.
1E-i	1G	.	.
.	.	8c\L	4g/
.	.	8B-\J	.
.	.	2c\	[2g/
=132	=132	=132	=132
1D	1A	1d	2g/]
.	.	.	2f#i/
1Gl	1Gl	1dl	1gl
!!LO:LB:i:g=z
=133||	=133||	=133||	=133||
*>C	*>C	*>C	*>C
*clefF4	*clefGv2	*clefGv2	*clefG2
*k[b-]	*k[b-]	*k[b-]	*k[b-]
*M2/1	*M2/1	*M2/1	*M2/1
*met(C|)	*met(C|)	*met(C|)	*met(C|)
!!section: Et in spiritum
!!!OMD: Et in spiritum
1G	0r	1.G	0dd
1G	.	.	.
.	.	2A/	.
=134	=134	=134	=134
1E-	0r	2B-\	0g
.	.	2.c\	.
1E-i	.	.	.
.	.	4B-\	.
.	.	4A/	.
.	.	4G/	.
=135	=135	=135	=135
1D	0r	1F	1a
1G	.	1G	1b-
=136	=136	=136	=136
[0F	0r	1A	0cc
.	.	1a	.
=137	=137	=137	=137
1F]	0r	2g\	0cc
.	.	2f\	.
1A	.	1e	.
=138	=138	=138	=138
2r	0r	1d	0dd
2.B-\	.	.	.
.	.	2G/	.
4G\	.	.	.
[2G\	.	2B-\	.
=139	=139	=139	=139
2G\]	0r	1A	1cc
2F#i\	.	.	.
1G	.	2.d\	1b-
.	.	4e\	.
=140	=140	=140	=140
0D	0r	2f\	0a
.	.	1g	.
.	.	2f#i\	.
=141	=141	=141	=141
0E	2.G/	0g	0g
.	4A/	.	.
.	2B-\	.	.
.	[2c\	.	.
=142	=142	=142	=142
0F	2c\]	1f	0a
.	2c\	.	.
.	1c	1f	.
=143	=143	=143	=143
1G	1r	2d\	1b-
.	.	1g	.
1A	1c	.	1cc
.	.	[2f\	.
=144	=144	=144	=144
2r	1d	2f\]	1b-
1G	.	2g\	.
.	2B-\	2d\	1g
2C/	2B-\	2e\	.
=145	=145	=145	=145
1D	0A	2d\	0f#
.	.	4c\	.
.	.	4B-\	.
1D	.	2A/	.
.	.	[2d\	.
=146	=146	=146	=146
1E	1G	2d\]	1g
.	.	2c\	.
1D	1r	1d	1a
=147	=147	=147	=147
0G	1d	2G/	0b-
.	.	2.B-\	.
.	2d\	.	.
.	.	4A/	.
.	[2d\	[2G/	.
=148	=148	=148	=148
1D	2d\]	2G/]	0a
.	2d\	2F#i/	.
1D	1d	2F#i/	.
.	.	2E/	.
=149	=149	=149	=149
2G\	0d	1G	1b-
2.B-\	.	.	.
.	.	1B-	1g
4A\	.	.	.
[2G\	.	.	.
=150	=150	=150	=150
2G\]	1d	1A	1a
2F#i\	.	.	.
1G	1d	2r	1b-
.	.	[2G/	.
=151	=151	=151	=151
1D	2d\	2G/]	1a
.	1d	2F/	.
1G	.	1B-	[1g
.	2d\	.	.
=152	=152	=152	=152
1D	2d\	1A	2g/]
.	2d\	.	4f#i/
.	.	.	4e/
1D	1d	1A	1f#i
=153	=153	=153	=153
1G	0d	1G	[0g
1G	.	1B-	.
=154	=154	=154	=154
1C	1e-i	1c	0g]
1G	2d\	2B-\	.
.	2B-\	2G/	.
=155	=155	=155	=155
1F	2c\	1A	0r
.	2.d\	.	.
2G\	.	1G	.
.	4c\	.	.
2E\	[2c\	.	.
=156	=156	=156	=156
2D\	2c\]	0r	0r
1G	2B-\	.	.
.	1A	.	.
2F#i\	.	.	.
=157	=157	=157	=157
1G	1G	2.B-\	1dd
.	.	4c\	.
1r	1r	2d\	2b-\
.	.	2e\	2cc\
=158	=158	=158	=158
0r	1r	2f\	2dd\
.	.	2g\	2ee\
.	2r	2a\	2ff\
.	2A/	[2a\	2ee\
=159	=159	=159	=159
1G	1B-	4a\]	1dd
.	.	4g\	.
.	.	1g	.
1A	2c\	.	1r
.	2c\	2f#i\	.
=160	=160	=160	=160
1G	1d	2.g\	2b-\
.	.	.	2b-\
.	.	4f\	.
1r	2c\	2e\	2a/
.	2B-\	2d\	2b-\
=161	=161	=161	=161
1r	1A	1e	1cc
2.G\	1r	2d\	1dd
.	.	[2g\	.
4F\	.	.	.
=162	=162	=162	=162
2G\	2d\	2g\]	0r
2A\	2c\	2f\	.
2B-\	2d\	2g\	.
2c\	2e\	[2a\	.
=163	=163	=163	=163
1d	1f	2a\]	1a
.	.	2d\	.
1G	2d\	1g	1b-
.	2g\	.	.
=164	=164	=164	=164
2r	2f\	2d\	1a
2A\	2e\	2c\	.
2D\	2d\	2d\	2f/
2E\	[2c\	2G/	2g/
=165	=165	=165	=165
2F\	2c\]	2r	2a/
2G\	2B-\	2d\	2d/
1C	1c	1e	2g/
.	.	.	[2g/
=166	=166	=166	=166
1D	1A	1d	2g/]
.	.	.	2f#i/
[1E-	1G	1B-	1g
=167	=167	=167	=167
1E-]	1r	1c	1g
2D\	1A	2d\	1f
2F\	.	2c\	.
=168	=168	=168	=168
2E-i\	2B-\	1e-i	1g
2C/	1c	.	.
2.F\	.	2c\	1a
.	2c\	[2f\	.
4G\	.	.	.
=169	=169	=169	=169
1A	1c	4f\]	0cc
.	.	4g\	.
.	.	1a	.
1A	1r	.	.
.	.	[2f\	.
=170	=170	=170	=170
1B-	1r	2f\]	0dd
.	.	1g	.
1G	1B-	.	.
.	.	[2g\	.
=171	=171	=171	=171
1E	1c	2g\]	1g
.	.	2c\	.
1D	1d	1f	1a
=172	=172	=172	=172
1G	1d	1g	1b-
2r	1c	2r	2r
2F\	.	4c\	[2cc\
.	.	4d\	.
=173	=173	=173	=173
2C/	0r	4e\	4cc\]
.	.	4f\	4b-\
2E\	.	1g	4a/
.	.	.	4g/
1D	.	.	1a
.	.	2f#i\	.
=174	=174	=174	=174
2.G\	0r	2.g\	0g
4A\	.	4f\	.
2B-\	.	4e\	.
.	.	4d\	.
[2c\	.	[2e-i\	.
=175	=175	=175	=175
2c\]	0g	2e-i\]	0r
4B-\	.	4d\	.
4A\	.	4c\	.
1G	.	1B-	.
=176	=176	=176	=176
1r	0g	1e-i	0b-
1G	.	1d	.
=177	=177	=177	=177
1A	1f	1c	1cc
1c	1e	2A/	1cc
.	.	[2a\	.
=178	=178	=178	=178
0B-	1f	2a\]	0r
.	.	4g\	.
.	.	4f\	.
.	1d	1g	.
=179	=179	=179	=179
0A	1e	1a	1cc
.	1f	2r	1cc
.	.	2A/	.
=180	=180	=180	=180
1G	1g	2.B-\	0dd
.	.	4c\	.
1B-	1r	4d\	.
.	.	4e\	.
.	.	[2f\	.
=181	=181	=181	=181
1F	0r	4f\]	1cc
.	.	4g\	.
.	.	1a	.
1G	.	.	1b-
.	.	[2g\	.
=182	=182	=182	=182
0d	0r	2g\]	0a
.	.	2f#i\	.
.	.	2f#i\	.
.	.	2e\	.
=183	=183	=183	=183
2.G\	0r	0g	1g
4A\	.	.	.
2B-\	.	.	1r
[2c\	.	.	.
=184	=184	=184	=184
4c\]	0r	0a	0r
4B-\	.	.	.
4A\	.	.	.
4G\	.	.	.
2F\	.	.	.
[2c\	.	.	.
=185	=185	=185	=185
4c\]	0r	1g	0r
4d\	.	.	.
1e	.	.	.
.	.	1f	.
[2d\	.	.	.
=186	=186	=186	=186
2d\]	0r	0e	0r
2c#i\	.	.	.
2c#i\	.	.	.
2Bni\	.	.	.
=187	=187	=187	=187
1d	0r	2d\	0r
.	.	2.f\	.
1A	.	.	.
.	.	4e\	.
.	.	2c\	.
=188	=188	=188	=188
2G\	1r	2e\	0r
2F\	.	1d	.
1E	1g	.	.
.	.	2c#i\	.
=189	=189	=189	=189
2D\	2f\	2d\	0r
2C/	2e\	2G/	.
2BB-/	2d\	2B-\	.
2F\	2c\	[2A/	.
=190	=190	=190	=190
2D\	2d\	2A/]	1r
2F\	2c\	2A/	.
1G	1B-	1G	1dd
=191	=191	=191	=191
1C	1c	1g	1ee-i
1G	1B-	2g\	2dd\
.	.	2g\	2dd\
=192	=192	=192	=192
2B-\	0r	2f\	2dd\
2A\	.	2f\	2cc\
2G\	.	2g\	2b-\
2c\	.	2e\	2cc\
=193	=193	=193	=193
2B-\	0r	2f\	1dd
2G\	.	2g\	.
2A\	.	2e\	2cc\
2F\	.	2f\	[2cc\
=194	=194	=194	=194
1G	0r	1d	2cc\]
.	.	.	2bni\
1A	.	1c	1cc
=195	=195	=195	=195
3%4FV	3%4cV	3%4fV	3%4aV
[3%2DZ	3%2dZ	[3%2fZ	[3%2aZ
=196	=196	=196	=196
3%2D]V	3%2dV	3%2f]V	3%2a]V
3%4GZ	3%4dZ	3%4gZ	3%4b-Z
=197	=197	=197	=197
3%4FV	3%4AV	3%2aV	3%4ccV
.	.	3%2f	.
3%2E-iZ	3%2B-Z	3%2gZ	[3%2gZ
=198	=198	=198	=198
3%2CV	3%2cV	3%4e-V	3%2g]V
3%4E-iZ	3%2B-	.	3%4gZ
.	3%2GZ	3%2cZ	.
=199	=199	=199	=199
3%4DV	3%4FV	3%4dV	3%4aV
[3%2E-iZ	3%2rZ	3%2B-Z	[3%2gZ
=200	=200	=200	=200
3%2E-]V	3%4GV	3%4cV	3%2g]V
3%4CZ	.	.	3%4eZ
.	[3%2AZ	3%2cZ	.
=201	=201	=201	=201
3%4DV	3%2A]V	3%4FV	3%2fV
.	3%2B-	.	3%2f
3%2CZ	3%2cZ	3%2GZ	3%2eZ
=202	=202	=202	=202
3%2BB-V	3%2dV	3%4B-V	3%2fV
3%4E-Z	3%4B-Z	.	3%4gZ
.	.	3%2GZ	.
=203	=203	=203	=203
3%2FV	3%4AV	3%2cV	3%4aV
3%2D	.	3%2d	.
3%2CZ	3%2AZ	3%2eZ	3%2rZ
=204	=204	=204	=204
3%4BB-V	3%2.B-V	3%4dV	3%4fV
.	3A/	.	.
3%2B-Z	3%2GZ	3%2eZ	3%2gZ
=205	=205	=205	=205
3%4cV	3%2.FV	3%4fV	3%2.aV
.	3G/	.	3b-\
3%2FZ	3%2AZ	3%2fZ	3%2ccZ
=206	=206	=206	=206
3%2GV	3%2GV	3%2dV	3%2b-V
3%2F	3%2c	3%4fZ	3%2.a
3%2DZ	3%2dZ	.	.
.	.	.	3g/Z
=207	=207	=207	=207
3%2GV	3%2B-V	3%4dV	3%4gV
3%4DZ	3%4AZ	.	.
.	.	3%2dZ	3%2f#iZ
=208	=208	=208	=208
0r	0G	1d	0g
.	.	1e	.
=209	=209	=209	=209
1D	0r	1f	0r
1E	.	2g\	.
.	.	[2c\	.
=210	=210	=210	=210
1F	0r	2c\]	0r
.	.	1d	.
1G	.	.	.
.	.	2B-\	.
=211	=211	=211	=211
2A\	1r	1A	1cc
2F\	.	.	.
1B-	1d	2G/	1dd
.	.	2G/	.
=212	=212	=212	=212
1A	1e	2c\	1cc
.	.	2c\	.
1A	1f	1c	1a
=213	=213	=213	=213
1G	1g	0d	2b-\
.	.	.	2b-\
2F\	2r	.	2a/
2G\	2g\	.	2b-\
=214	=214	=214	=214
2F\	2a\	0r	0cc
2E\	2g\	.	.
1A	2f\	.	.
.	2e\	.	.
=215	=215	=215	=215
1B-	1d	1f	1dd
1r	2c\	2e\	1r
.	2d\	2f\	.
=216	=216	=216	=216
0r	1e	1g	2b-\
.	.	.	2cc\
.	2d\	2f\	1dd
.	4c\	[2a\	.
.	4B-\	.	.
=217	=217	=217	=217
0r	1A	4a\]	1cc
.	.	4g\	.
.	.	4f#i\	.
.	.	4e\	.
.	1A	1f#i	1r
=218	=218	=218	=218
0E-	0G	1g	0b-
.	.	1r	.
=219	=219	=219	=219
[0F	0r	1.c	1.a
.	.	2B-\	2b-\
=220	=220	=220	=220
0F]	0r	0A	0cc
=221	=221	=221	=221
0G	0G	1.d	0b-
.	.	2e\	.
=222	=222	=222	=222
1r	0d	0f	0a
1F	.	.	.
=223	=223	=223	=223
0C	0e-i	1g	0g
.	.	1G	.
=224	=224	=224	=224
1G	1d	1B-	0g
1r	[1c	1e-i	.
=225	=225	=225	=225
0G	2c\]	1d	0dd
.	4Bni\	.	.
.	4A/	.	.
.	1Bni	1G	.
=226	=226	=226	=226
0C	0c	1r	0ee-i
.	.	1G	.
=227	=227	=227	=227
0BB-	1r	0B-	1dd
.	1d	.	1dd
=228	=228	=228	=228
1F	1c	1A	1r
2G\	1B-	1G	1dd
[2G\	.	.	.
=229	=229	=229	=229
2G\]	1A	1r	1cc
2F#i\	.	.	.
1G	2.d\	1g	1b-
.	4c\	.	.
=230	=230	=230	=230
1r	2A/	1f	2cc\
.	1B-	.	2.dd\
[1G	.	[1d	.
.	.	.	4cc\
.	[2G/	.	4b-\
.	.	.	4a/
=231	=231	=231	=231
2G\]	2G/]	2d\]	2b-\
1F	2.A/	1f	2.cc\
.	4B-\	.	4b-\
2E\	2c\	2g\	4a/
.	.	.	4g/
=232	=232	=232	=232
2D\	0d	2a\	2f/
2G\	.	1g	2g/
1D	.	.	1a
.	.	2f#i\	.
=233	=233	=233	=233
1G	1B-	1g	2g/
.	.	.	2b-\
2F\	[1c	1r	2a/
2E\	.	.	2g/
=234	=234	=234	=234
0C	2c\]	[0g	0cc
.	2d\	.	.
.	1e-i	.	.
=235	=235	=235	=235
1G	0d	1g]	1b-
1D	.	1f	1a
=236	=236	=236	=236
1E-	1B-	0e-	1g
1C	1c	.	[1g
=237	=237	=237	=237
0D	0A	[0dl	2g/]
.	.	.	2f#i/
.	.	.	2f#i/
.	.	.	2e/
=238	=238	=238	=238
0r	[0Gl	0d_	[0gl
=239	=239	=239	=239
0Gl	0G]	0d]	0g]
==	==	==	==
*-	*-	*-	*-
!!!RDF**kern: l=long note in original notation
!!!RDF**kern: i=editorial accidental
!!!RDF**kern: V=start of tuplet marker
!!!RDF**kern: Z=end of tuplet marker
!!!ENC:	Jesse Rodin 8/11/2013
!!!END:	2013/08/12/
!!!EED:	Jesse Rodin
!!!EEV:	2016/02/08/
!!!ONB:	Translated from MusicXML and edited on 2016/02/08/ by Craig Sapp
!!muse2ps: T^@{OPR}^u^@{ONM}{. }@{OTL}^C^@{COM}^i2I150v85,85,85,150Q16c75
